<?xml version="1.0" encoding="UTF-8"?>
<map version="1.10" tiledversion="1.12.2" orientation="orthogonal" renderorder="right-down" width="120" height="20" tilewidth="16" tileheight="16" infinite="0" nextlayerid="10" nextobjectid="38">
 <editorsettings>
  <export target="../../../games/05-super_martian/assets/tilemaps/level2.json" format="json"/>
 </editorsettings>
 <tileset firstgid="1" name="tileset" tilewidth="16" tileheight="16" tilecount="77" columns="7" objectalignment="topleft">
  <transformations hflip="0" vflip="0" rotate="0" preferuntransformed="1"/>
  <image source="../../../games/05-super_martian/assets/graphics/tileset.png" width="112" height="176"/>
  <tile id="0">
   <properties>
    <property name="collision" value="solid"/>
   </properties>
  </tile>
  <tile id="1">
   <properties>
    <property name="collision" value="solid"/>
   </properties>
  </tile>
  <tile id="2">
   <properties>
    <property name="collision" value="solid"/>
   </properties>
  </tile>
  <tile id="3">
   <properties>
    <property name="collision" value="platform"/>
   </properties>
  </tile>
  <tile id="4">
   <properties>
    <property name="collision" value="platform"/>
   </properties>
  </tile>
  <tile id="5">
   <properties>
    <property name="collision" value="platform"/>
   </properties>
  </tile>
  <tile id="6">
   <properties>
    <property name="collision" value="solid"/>
   </properties>
  </tile>
  <tile id="7">
   <properties>
    <property name="collision" value="solid"/>
   </properties>
  </tile>
  <tile id="8">
   <properties>
    <property name="collision" value="solid"/>
   </properties>
  </tile>
  <tile id="9">
   <properties>
    <property name="collision" value="solid"/>
   </properties>
  </tile>
  <tile id="12">
   <properties>
    <property name="collision" value="solid"/>
   </properties>
  </tile>
  <tile id="13">
   <properties>
    <property name="collision" value="solid"/>
   </properties>
  </tile>
  <tile id="14">
   <properties>
    <property name="collision" value="solid"/>
   </properties>
  </tile>
  <tile id="15">
   <properties>
    <property name="collision" value="solid"/>
   </properties>
  </tile>
  <tile id="16">
   <properties>
    <property name="collision" value="solid"/>
   </properties>
  </tile>
  <tile id="17">
   <properties>
    <property name="collision" value="solid"/>
   </properties>
  </tile>
  <tile id="18">
   <properties>
    <property name="collision" value="solid"/>
   </properties>
  </tile>
  <tile id="19">
   <properties>
    <property name="collision" value="solid"/>
   </properties>
  </tile>
  <tile id="20">
   <properties>
    <property name="collision" value="solid"/>
   </properties>
  </tile>
  <tile id="24">
   <properties>
    <property name="collision" value="solid"/>
   </properties>
  </tile>
  <tile id="25">
   <properties>
    <property name="collision" value="solid"/>
   </properties>
  </tile>
  <tile id="26">
   <properties>
    <property name="collision" value="solid"/>
   </properties>
  </tile>
  <tile id="27">
   <properties>
    <property name="collision" value="solid"/>
   </properties>
  </tile>
  <tile id="31">
   <properties>
    <property name="collision" value="solid"/>
   </properties>
  </tile>
  <tile id="32">
   <properties>
    <property name="collision" value="solid"/>
   </properties>
  </tile>
  <tile id="33">
   <properties>
    <property name="collision" value="solid"/>
   </properties>
  </tile>
  <tile id="41">
   <properties>
    <property name="collision" value="solid"/>
   </properties>
  </tile>
  <tile id="42">
   <properties>
    <property name="collision" value="platform"/>
   </properties>
  </tile>
  <tile id="43">
   <properties>
    <property name="collision" value="platform"/>
   </properties>
  </tile>
  <tile id="44">
   <properties>
    <property name="collision" value="platform"/>
   </properties>
  </tile>
  <tile id="49">
   <properties>
    <property name="collision" value="solid"/>
   </properties>
  </tile>
  <tile id="50">
   <properties>
    <property name="collision" value="solid"/>
   </properties>
  </tile>
  <wangsets>
   <wangset name="martianTerrain" type="corner" tile="-1">
    <wangcolor name="cloud" color="#0000ff" tile="-1" probability="1"/>
    <wangcolor name="sky" color="#00e9ff" tile="-1" probability="1"/>
    <wangcolor name="brick" color="#0000ff" tile="-1" probability="1"/>
    <wangtile tileid="15" wangid="0,0,0,0,0,0,0,1"/>
    <wangtile tileid="17" wangid="0,0,0,3,0,0,0,0"/>
    <wangtile tileid="18" wangid="0,0,0,3,0,3,0,0"/>
    <wangtile tileid="19" wangid="0,0,0,0,0,3,0,0"/>
    <wangtile tileid="24" wangid="0,3,0,3,0,0,0,0"/>
    <wangtile tileid="25" wangid="0,3,0,3,0,3,0,3"/>
    <wangtile tileid="26" wangid="0,0,0,0,0,3,0,3"/>
    <wangtile tileid="31" wangid="0,3,0,0,0,0,0,0"/>
    <wangtile tileid="32" wangid="0,3,0,0,0,0,0,3"/>
    <wangtile tileid="33" wangid="0,0,0,0,0,0,0,3"/>
    <wangtile tileid="51" wangid="0,1,0,1,0,1,0,2"/>
    <wangtile tileid="52" wangid="0,2,0,1,0,1,0,1"/>
    <wangtile tileid="53" wangid="0,2,0,1,0,1,0,2"/>
    <wangtile tileid="58" wangid="0,1,0,1,0,2,0,1"/>
    <wangtile tileid="59" wangid="0,1,0,2,0,1,0,1"/>
    <wangtile tileid="60" wangid="0,1,0,1,0,1,0,1"/>
    <wangtile tileid="65" wangid="0,2,0,1,0,2,0,2"/>
    <wangtile tileid="66" wangid="0,2,0,2,0,1,0,2"/>
    <wangtile tileid="67" wangid="0,1,0,2,0,2,0,1"/>
    <wangtile tileid="72" wangid="0,1,0,2,0,2,0,2"/>
    <wangtile tileid="73" wangid="0,2,0,2,0,2,0,1"/>
    <wangtile tileid="74" wangid="0,2,0,2,0,2,0,2"/>
   </wangset>
  </wangsets>
 </tileset>
 <tileset firstgid="78" name="creatures" tilewidth="16" tileheight="16" tilecount="56" columns="8">
  <image source="../graphics/creatures.png" width="128" height="112"/>
 </tileset>
 <group id="7" name="tilemap">
  <layer id="2" name="background" width="120" height="20">
   <data encoding="csv">
75,75,75,75,75,75,75,75,75,75,75,75,75,75,75,75,75,75,75,75,75,75,75,75,75,75,75,75,75,75,75,75,75,75,75,75,75,75,75,75,75,75,75,75,75,75,75,75,75,75,75,75,75,75,75,75,75,75,75,75,75,75,75,75,75,75,75,75,75,75,75,75,75,75,75,75,75,75,75,75,75,75,75,75,75,75,75,75,75,75,75,75,75,75,75,75,75,75,75,75,75,75,75,75,75,75,75,75,75,75,75,75,75,75,75,75,75,75,75,75,
75,75,75,75,75,75,75,75,75,75,75,75,75,75,75,75,75,75,75,75,75,75,75,75,75,75,75,75,75,75,75,75,75,75,75,75,75,75,75,75,66,54,54,54,54,54,67,75,75,75,75,75,75,75,75,66,54,54,54,54,54,54,54,54,54,67,75,75,75,66,54,54,54,54,54,54,67,75,75,75,75,75,75,75,75,75,75,75,75,75,75,75,75,75,75,75,75,75,75,75,75,75,75,75,75,75,75,75,75,75,75,75,75,75,75,75,75,75,75,75,
75,75,75,75,75,75,75,75,66,54,54,54,54,54,54,54,54,54,67,75,75,75,75,75,75,75,75,66,54,54,54,54,54,54,54,54,67,75,75,75,73,59,61,61,61,60,74,75,75,75,75,75,75,75,66,52,61,61,61,61,61,61,61,61,61,53,67,75,75,73,59,61,61,61,61,60,74,75,75,75,75,75,75,75,66,54,54,54,54,54,54,54,54,54,67,75,75,75,75,75,75,75,75,75,75,75,75,75,75,75,75,75,75,75,75,75,75,75,75,75,
75,75,75,75,75,75,75,66,52,61,61,61,61,61,61,61,61,61,53,67,75,75,75,75,66,54,54,52,61,61,61,61,61,61,61,61,53,54,67,75,75,73,68,68,68,74,75,75,75,75,75,75,75,75,73,68,68,68,59,61,61,61,61,61,61,61,53,67,75,75,73,68,68,68,68,74,75,75,75,75,75,75,75,66,52,61,61,61,61,61,61,61,61,61,53,67,75,75,75,75,75,75,75,75,75,75,75,75,75,75,75,75,75,75,75,75,75,75,75,75,
75,75,75,75,66,54,54,52,61,61,61,61,61,61,61,61,61,61,61,53,67,75,75,75,73,59,61,61,61,61,61,61,61,61,61,61,61,61,53,67,75,75,75,75,75,75,75,75,75,75,75,75,75,75,75,75,75,75,73,59,61,61,61,61,61,61,60,74,75,75,75,75,75,75,75,75,75,75,75,75,75,75,75,73,59,61,61,61,61,61,61,61,61,61,61,53,75,75,75,75,75,76,76,76,76,76,76,76,76,76,76,76,76,76,76,76,76,76,76,76,
75,75,75,75,73,59,61,61,61,61,61,61,61,61,61,61,61,61,61,60,74,75,75,75,75,73,59,61,61,61,61,61,61,61,61,61,61,61,60,74,75,75,75,75,75,75,75,66,54,54,54,54,67,75,75,75,75,75,66,52,61,61,61,61,61,61,53,67,75,66,54,54,67,75,75,75,75,75,75,75,75,75,75,66,52,61,61,61,61,61,61,61,61,61,61,60,75,75,75,75,75,76,76,76,76,76,76,76,76,76,76,76,76,76,76,76,76,76,76,76,
67,75,75,75,75,73,68,68,68,68,68,68,68,68,68,68,68,68,68,74,75,66,54,67,75,75,73,68,68,68,68,68,68,68,68,68,68,68,74,75,75,75,75,75,75,75,66,52,61,61,61,61,53,67,75,75,75,75,73,68,68,68,68,68,68,68,68,74,75,73,59,61,53,67,75,75,75,75,75,75,75,75,75,73,68,68,68,68,68,68,68,68,68,68,68,74,75,75,66,54,54,76,76,76,76,76,76,76,76,76,76,76,76,76,76,76,76,76,76,76,
53,54,67,75,75,75,75,75,75,75,75,75,75,75,75,75,75,75,75,75,66,52,61,53,54,67,75,75,75,75,75,75,75,75,75,75,75,75,75,75,75,75,75,75,75,75,73,68,68,68,68,68,68,74,75,75,75,75,75,75,75,75,75,75,75,75,75,75,75,75,73,68,68,74,75,75,66,54,54,54,54,54,54,54,54,67,75,75,75,75,75,75,75,75,75,75,75,66,52,61,61,76,76,76,76,76,76,76,76,76,76,76,76,76,76,76,76,76,76,76,
61,61,53,67,75,75,75,75,75,75,75,75,75,75,75,75,75,75,75,75,73,68,68,68,68,74,75,75,75,75,75,75,75,75,75,75,75,75,75,75,75,75,75,75,75,75,75,75,75,75,75,75,75,75,75,75,75,75,75,75,75,75,75,75,75,75,75,75,75,75,75,75,75,75,75,66,52,61,61,61,61,61,61,61,60,74,75,75,75,75,75,75,75,75,75,75,75,73,59,61,61,76,76,76,76,76,76,76,76,76,76,76,76,76,76,76,76,76,76,76,
68,68,68,74,75,75,75,75,75,75,75,75,75,75,75,75,75,75,75,75,75,75,75,75,75,75,75,75,75,75,75,75,75,75,75,75,75,75,75,75,75,75,75,75,75,75,75,75,75,75,75,75,75,75,75,75,75,75,75,75,75,75,75,75,75,75,75,75,75,75,75,75,75,75,75,73,68,68,68,68,68,68,68,68,74,75,75,75,75,75,75,75,75,75,75,75,75,75,73,68,68,76,76,76,76,76,76,76,76,76,76,76,76,76,76,76,76,76,76,76,
75,75,75,75,75,75,75,75,75,75,75,75,75,75,75,75,75,75,75,75,75,75,75,75,75,75,75,75,75,75,75,75,75,75,75,75,75,75,75,75,75,75,75,75,75,75,75,75,75,75,75,75,75,75,75,75,75,75,75,75,75,75,75,75,75,75,75,75,75,75,75,75,75,75,75,75,75,75,75,75,75,75,75,75,75,75,75,75,75,75,75,75,75,75,75,75,75,75,75,75,75,76,76,76,76,76,76,76,76,76,76,76,76,76,76,76,76,76,76,76,
75,75,75,75,75,75,75,75,75,75,75,75,75,75,75,75,75,75,75,75,75,75,75,75,75,75,75,75,75,75,75,75,75,75,75,75,75,75,75,75,75,75,75,75,75,75,75,75,75,75,75,75,75,75,75,75,75,75,75,75,75,75,75,75,75,75,75,75,75,75,75,75,75,75,75,75,75,75,75,75,75,75,75,75,75,75,75,75,75,75,75,75,75,75,75,75,75,75,75,75,75,76,76,76,76,76,76,76,76,76,76,76,76,76,76,76,76,76,76,76,
75,75,75,75,75,75,75,75,75,75,75,75,75,75,75,75,75,75,75,75,75,75,75,75,75,75,75,75,75,75,75,75,75,75,75,75,75,75,75,75,75,75,75,75,75,75,75,75,75,75,75,75,75,75,75,75,75,75,75,75,75,75,75,75,75,75,75,75,75,75,75,75,75,75,75,75,75,75,75,75,75,75,75,75,75,75,75,75,75,75,75,75,75,75,75,75,75,75,75,75,75,76,76,76,76,76,76,76,76,76,76,76,76,76,76,76,76,76,76,76,
75,75,75,75,75,75,75,75,75,75,75,75,75,75,75,75,75,75,75,75,75,75,75,75,75,75,75,75,75,75,75,75,75,75,75,75,75,75,75,75,75,75,75,75,75,75,75,75,75,75,75,75,75,75,75,75,75,75,75,75,75,75,75,75,75,75,75,75,75,75,75,75,75,75,75,75,75,75,75,75,75,75,75,75,75,75,75,75,75,75,75,75,75,75,75,75,75,75,75,75,75,76,76,76,76,76,76,76,76,76,76,76,76,76,76,76,76,76,76,76,
75,75,75,75,75,75,75,75,75,75,75,75,75,75,75,75,75,75,75,75,75,75,75,75,75,75,75,75,75,75,75,75,75,75,75,75,75,75,75,75,75,75,75,75,75,75,75,75,75,75,75,75,75,75,75,75,75,75,75,75,75,75,75,75,75,75,75,75,75,75,75,75,75,75,75,75,75,75,75,75,75,75,75,75,75,75,75,75,75,75,75,75,75,75,75,75,75,75,75,76,76,76,76,76,76,76,76,76,76,76,76,76,76,76,76,76,76,76,76,76,
75,75,75,75,75,75,75,75,75,75,75,75,75,75,75,75,75,75,75,75,75,75,75,75,75,75,75,75,75,75,75,75,75,75,75,75,75,75,75,75,75,75,75,75,75,75,75,75,75,75,75,75,75,75,75,75,75,75,75,75,75,75,75,75,75,75,75,75,75,75,75,75,75,75,75,75,75,75,75,75,75,75,75,75,75,75,75,75,75,75,75,75,75,75,75,75,75,75,75,76,76,76,76,76,76,76,76,76,76,76,76,76,76,76,76,76,76,76,76,76,
75,75,75,75,75,75,75,75,75,75,75,75,75,75,75,75,75,75,75,75,75,75,75,75,75,75,75,75,75,75,75,75,75,75,75,75,75,75,75,75,75,75,75,75,75,75,75,75,75,75,75,75,75,75,75,75,75,75,75,75,75,75,75,75,75,75,75,75,75,75,75,75,75,75,75,75,75,75,75,75,75,75,75,75,75,75,75,75,75,75,75,75,75,75,75,75,75,75,75,76,76,76,76,76,76,76,76,76,76,76,76,76,76,76,76,76,76,76,76,76,
75,75,75,75,75,75,75,75,75,75,75,75,75,75,75,75,75,75,75,75,75,75,75,75,75,75,75,75,75,75,75,75,75,75,75,75,75,75,75,75,75,75,75,75,75,75,75,75,75,75,75,75,75,75,75,75,75,75,75,75,75,75,75,75,75,75,75,75,75,75,75,75,75,75,75,75,75,75,75,75,75,75,75,75,75,75,75,75,75,75,75,75,75,75,75,75,75,75,75,75,75,75,75,75,75,75,75,75,75,75,75,75,75,75,75,75,75,75,75,75,
75,75,75,75,75,75,75,75,75,75,75,75,75,75,75,75,75,75,75,75,75,75,75,75,75,75,75,75,75,75,75,75,75,75,75,75,75,75,75,75,75,75,75,75,75,75,75,75,75,75,75,75,75,75,75,75,75,75,75,75,75,75,75,75,75,75,75,75,75,75,75,75,75,75,75,75,75,75,75,75,75,75,75,75,75,75,75,75,75,75,75,75,75,75,75,75,75,75,75,75,75,75,75,75,75,75,75,75,75,75,75,75,75,75,75,75,75,75,75,75,
75,75,75,75,75,75,75,75,75,75,75,75,75,75,75,75,75,75,75,75,75,75,75,75,75,75,75,75,75,75,75,75,75,75,75,75,75,75,75,75,75,75,75,75,75,75,75,75,75,75,75,75,75,75,75,75,75,75,75,75,75,75,75,75,75,75,75,75,75,75,75,75,75,75,75,75,75,75,75,75,75,75,75,75,75,75,75,75,75,75,75,75,75,75,75,75,75,75,75,75,75,75,75,75,75,75,75,75,75,75,75,75,75,75,75,75,75,75,75,75
</data>
  </layer>
  <layer id="3" name="decoration" width="120" height="20">
   <data encoding="csv">
0,0,0,0,0,0,0,0,0,0,0,0,0,0,0,0,0,0,0,0,0,0,0,0,0,0,0,0,0,0,0,0,0,0,0,0,0,0,0,0,0,0,0,0,0,0,0,0,0,0,0,0,0,0,0,0,0,0,0,0,0,0,0,0,0,0,0,0,0,0,0,0,0,0,0,0,0,0,0,0,0,0,0,0,0,0,0,0,0,0,0,0,0,0,0,0,0,0,0,0,0,0,0,0,0,0,0,0,0,0,0,0,0,0,0,0,0,0,0,0,
0,0,0,0,0,0,0,0,0,0,0,0,0,0,0,0,0,0,0,0,0,0,0,0,0,0,0,0,0,0,0,0,0,0,0,0,0,0,0,0,0,0,0,0,0,0,0,0,0,0,0,0,0,0,0,0,0,0,0,0,0,0,0,0,0,0,0,0,0,0,0,0,0,0,0,0,0,0,0,0,0,0,0,0,0,0,0,0,0,0,0,0,0,0,0,0,0,0,0,0,51,0,0,0,0,0,0,0,0,0,0,0,0,0,0,0,0,0,0,0,
0,0,0,0,0,0,0,0,0,0,0,0,0,0,0,0,0,0,0,0,0,0,0,0,0,0,0,0,0,0,0,0,0,0,0,0,0,0,0,0,0,0,0,0,0,0,0,0,0,0,0,0,0,0,0,0,0,0,0,0,24,0,0,0,0,0,0,0,0,0,0,0,0,0,0,0,0,0,0,0,0,0,0,0,0,0,0,0,0,0,0,0,0,0,0,0,0,0,0,46,51,0,0,0,0,0,0,0,0,0,0,0,0,0,0,0,0,0,0,0,
0,0,0,0,0,0,0,0,0,0,0,0,0,0,0,0,0,0,0,0,0,0,0,0,0,0,0,0,0,0,0,0,0,0,0,24,0,0,0,0,0,0,0,0,0,0,0,0,0,0,0,0,0,0,0,0,0,0,0,0,31,0,0,0,0,0,0,0,0,0,0,0,0,0,0,0,0,0,0,0,0,0,0,0,0,0,0,0,0,0,0,0,0,0,0,0,0,0,0,0,0,0,0,0,0,0,0,0,0,0,0,0,0,0,0,0,0,0,0,0,
0,0,0,0,0,0,0,0,0,0,0,0,0,0,0,0,0,0,0,0,0,0,0,0,0,0,0,0,0,0,0,0,0,46,0,39,0,0,0,0,47,0,0,0,46,0,0,0,0,0,0,0,0,0,0,47,0,0,48,0,38,0,0,0,0,0,0,0,0,0,0,0,0,0,0,0,0,0,0,0,0,0,0,0,0,0,0,0,0,0,0,0,0,0,0,0,0,0,0,0,0,0,0,0,0,0,0,0,0,0,0,0,0,0,0,0,0,0,0,0,
0,0,0,0,0,0,0,0,0,0,0,0,0,0,0,0,0,0,0,0,0,0,0,0,0,0,0,0,0,0,0,0,0,0,0,0,0,0,0,0,0,0,0,0,0,0,0,0,0,0,0,0,0,0,0,0,0,0,0,0,0,0,0,0,0,0,0,0,0,0,0,0,0,0,0,0,0,0,0,0,0,0,0,0,0,0,0,0,0,0,0,0,0,0,0,0,0,0,0,0,0,0,0,0,0,0,0,0,0,0,0,0,0,0,0,0,0,0,0,0,
0,0,0,0,0,0,0,0,0,0,0,0,0,0,0,0,0,0,0,0,0,0,0,0,0,0,0,0,0,0,0,0,0,0,0,0,0,0,0,0,0,0,0,0,0,0,0,0,0,0,0,0,0,0,0,0,0,0,0,0,0,0,0,0,0,46,48,0,0,0,0,49,0,47,0,0,0,0,0,0,0,0,0,0,0,0,0,0,0,0,0,0,0,0,0,0,0,0,0,0,0,0,0,0,0,0,0,0,0,0,0,0,0,0,0,0,0,0,0,0,
0,0,0,24,0,0,0,0,0,0,0,0,0,0,0,0,0,0,0,0,0,0,0,0,0,0,0,0,0,48,0,0,0,0,0,0,0,0,0,0,0,0,0,0,0,0,0,0,49,0,46,0,49,0,0,0,0,0,0,0,0,0,0,0,0,0,0,0,0,0,0,0,0,0,0,0,0,0,0,0,0,0,0,0,0,0,0,0,0,0,0,0,0,0,0,0,0,0,0,0,0,0,0,0,0,0,0,0,0,0,0,0,0,0,0,0,0,0,24,0,
49,0,47,38,0,0,0,0,0,0,0,0,0,0,0,0,0,0,0,0,0,0,0,0,0,0,24,0,0,0,0,0,0,0,0,0,0,0,0,0,0,0,0,0,0,0,0,0,0,0,0,0,0,0,0,0,0,0,0,0,0,0,0,0,0,0,0,0,0,0,0,0,0,0,0,0,0,0,0,0,0,0,0,0,0,0,0,0,0,0,0,0,0,0,0,0,0,0,0,0,0,0,0,0,0,0,0,0,0,0,0,0,0,0,0,0,0,0,31,0,
0,0,0,0,46,48,0,0,0,0,0,0,0,0,0,0,0,0,0,0,0,0,0,0,0,0,31,0,0,0,0,0,0,0,0,0,0,0,0,0,0,0,0,0,0,0,0,0,0,0,0,0,0,0,0,0,0,0,0,0,0,0,0,0,0,0,0,0,0,47,0,0,0,0,0,0,0,0,0,0,0,0,0,0,0,0,0,0,0,0,0,0,0,0,0,0,0,0,0,0,0,0,0,0,0,0,0,0,0,0,0,0,0,0,0,0,0,0,31,0,
0,0,0,0,0,0,0,0,0,0,0,0,0,0,0,0,0,0,0,0,46,40,0,49,0,0,38,0,0,0,0,46,0,0,0,0,0,0,0,0,0,0,0,0,0,0,0,0,0,0,0,0,0,0,0,0,0,0,0,0,0,0,0,0,0,0,0,0,0,0,0,0,0,0,0,0,0,0,0,0,0,0,0,0,0,0,0,0,0,0,0,0,47,0,0,0,0,0,0,0,0,0,0,0,0,0,0,0,0,0,0,0,0,0,0,0,0,0,31,0,
0,0,0,0,0,0,0,0,0,0,0,0,0,0,0,0,0,0,0,0,0,0,0,0,0,0,0,0,0,0,0,0,0,0,0,0,0,0,0,0,0,0,0,0,0,0,0,0,0,0,0,0,0,0,0,0,0,0,0,0,0,0,0,0,0,0,0,0,0,0,0,0,0,0,0,0,0,0,0,0,0,0,0,0,0,0,0,0,0,0,0,0,0,0,0,0,0,0,0,0,0,0,0,0,0,0,0,0,0,0,0,0,0,0,0,0,0,0,31,0,
0,0,0,0,0,0,0,0,0,0,0,0,0,0,0,0,0,0,0,0,0,0,0,12,0,0,0,0,0,0,0,0,0,0,0,0,0,0,0,0,0,46,47,0,0,49,0,0,0,0,0,0,0,0,0,0,0,0,0,0,0,0,0,0,0,0,0,0,0,0,0,0,0,0,0,0,0,0,0,0,0,0,0,0,0,0,0,0,0,0,0,0,0,0,0,0,0,0,0,0,0,0,0,0,0,0,0,0,0,0,0,0,0,0,0,0,24,0,31,0,
0,0,0,0,0,0,0,0,0,24,0,0,0,0,0,0,0,0,47,0,0,0,0,0,0,0,0,0,0,0,0,0,0,0,0,0,0,0,0,0,0,0,0,0,0,0,0,0,0,0,0,0,0,0,0,0,0,24,0,0,0,0,0,0,0,0,0,0,0,0,0,0,0,0,0,0,0,0,51,0,0,0,0,0,0,0,0,0,0,0,48,0,0,0,0,0,0,0,0,0,0,0,0,0,0,0,0,0,0,0,0,0,0,0,0,0,31,0,31,0,
0,0,0,0,0,0,0,0,0,31,0,0,24,0,0,0,0,0,0,0,0,0,0,0,0,0,0,0,0,0,0,0,0,0,0,0,0,0,0,0,0,0,0,0,0,0,0,0,0,0,0,0,0,24,0,0,0,31,0,0,0,0,0,0,0,0,0,0,0,0,0,0,0,0,0,0,51,0,51,0,0,0,0,0,0,24,0,0,0,0,0,0,0,0,0,0,0,0,0,0,0,0,0,0,0,0,0,0,0,0,0,0,0,0,0,0,31,0,31,0,
0,0,0,0,0,0,0,0,0,31,0,0,31,0,0,48,0,0,0,0,0,0,0,0,0,0,0,0,0,0,0,0,0,0,0,0,0,0,0,0,0,46,0,0,0,0,0,49,0,0,0,49,0,38,47,0,0,39,0,0,47,0,0,0,0,0,0,0,0,0,0,0,0,0,0,0,51,51,51,0,0,0,0,0,0,31,0,0,0,0,0,0,0,0,0,0,0,0,0,0,0,0,0,0,0,0,0,0,0,0,0,0,0,0,0,0,31,0,31,0,
0,0,0,0,0,0,0,0,49,38,0,0,38,49,0,0,0,0,0,0,0,0,0,0,0,0,0,0,0,0,0,0,0,0,0,0,0,0,0,0,0,0,0,0,0,0,0,0,0,0,0,0,0,0,0,0,0,0,0,0,0,0,0,0,0,0,0,0,0,0,0,0,0,0,0,0,51,50,51,0,0,51,0,49,46,38,46,0,49,0,0,0,0,0,0,0,0,0,0,0,0,48,0,0,0,47,0,0,48,0,47,0,0,47,0,0,38,46,38,0,
0,0,0,0,0,0,0,0,0,0,0,0,0,0,0,0,0,0,0,0,0,0,0,0,0,0,0,0,0,0,0,0,0,0,0,0,0,0,0,0,0,0,0,0,0,0,0,0,0,0,0,0,0,0,0,0,0,0,0,0,0,0,0,0,0,0,0,0,0,0,0,0,0,0,0,0,0,0,0,0,0,0,0,0,0,0,0,0,0,0,0,0,0,0,0,0,0,0,0,0,0,0,0,0,0,0,0,0,0,0,0,0,0,0,0,0,0,0,0,0,
0,0,0,0,0,0,0,0,0,0,0,0,0,0,0,0,0,0,0,0,0,0,0,0,0,0,0,0,0,0,0,0,0,0,0,0,0,0,0,0,0,0,0,0,0,0,0,0,0,0,0,0,0,0,0,0,0,0,0,0,0,0,0,0,0,0,0,0,0,0,0,0,0,0,0,0,0,0,0,0,0,0,0,0,0,0,0,0,0,0,0,0,0,0,0,0,0,0,0,0,0,0,0,0,0,0,0,0,0,0,0,0,0,0,0,0,0,0,0,0,
0,0,0,0,0,0,0,0,0,0,0,0,0,0,0,0,0,0,0,0,0,0,0,0,0,0,0,0,0,0,0,0,0,0,41,41,41,41,41,41,0,0,0,0,0,0,0,41,41,41,41,41,0,0,0,0,0,0,0,0,0,0,0,41,41,41,41,41,41,41,41,41,41,41,41,41,41,41,41,41,41,41,41,0,0,0,0,0,0,0,0,0,0,0,41,41,41,41,41,41,0,0,0,0,0,0,0,0,0,0,0,0,0,0,0,0,0,0,0,0
</data>
  </layer>
  <layer id="1" name="ground" width="120" height="20">
   <data encoding="csv">
0,0,0,0,0,0,0,0,0,0,0,0,0,0,0,0,0,0,0,0,0,0,0,0,0,0,0,0,0,0,0,0,0,0,0,0,0,0,0,0,0,0,0,0,0,0,0,0,0,0,0,0,0,0,0,0,0,0,0,0,0,0,0,0,0,0,0,0,0,0,0,0,0,0,0,0,0,0,0,0,0,0,0,0,0,0,0,0,0,0,0,0,0,0,0,0,0,0,0,0,0,0,0,0,0,0,0,0,0,0,0,0,0,0,0,0,0,0,0,0,
0,0,0,0,0,0,0,0,0,0,0,0,0,0,0,0,0,0,0,0,0,0,0,0,0,0,0,0,0,0,0,0,0,0,0,0,0,0,0,0,0,0,0,0,0,0,0,0,0,0,0,0,0,0,0,0,0,0,0,0,0,0,0,0,0,0,0,0,0,0,0,0,0,0,0,0,0,0,0,0,0,0,0,0,0,0,0,0,0,0,0,0,0,0,0,0,0,0,0,0,0,0,0,0,0,0,0,0,0,0,0,0,0,0,0,0,0,0,0,0,
0,0,0,0,0,0,0,0,0,0,0,0,0,0,0,0,0,0,0,0,0,0,0,0,0,0,0,0,0,0,0,0,0,0,0,0,0,0,0,0,0,0,0,0,0,0,0,0,0,0,0,0,0,0,0,0,0,0,0,0,0,0,0,0,0,0,0,0,0,0,0,0,0,0,0,0,0,0,0,0,0,0,0,0,0,0,0,0,0,0,0,0,0,0,0,0,0,0,0,0,0,0,0,0,0,0,0,0,0,0,0,0,0,0,0,0,0,0,0,0,
0,0,0,0,0,0,0,0,0,0,0,0,0,0,0,0,0,0,0,0,0,0,0,0,0,0,0,0,0,0,0,0,0,0,0,0,0,0,0,0,0,0,0,0,0,0,0,0,0,0,0,0,0,0,0,0,0,0,0,0,0,0,0,0,0,0,0,0,0,0,0,0,0,0,0,0,0,0,0,0,0,0,0,0,0,0,0,0,0,0,0,0,0,0,0,0,0,0,0,18,19,44,44,44,44,44,44,44,44,44,44,44,44,44,44,44,44,44,44,44,
0,0,0,0,0,0,0,0,0,0,0,0,0,0,0,0,0,0,0,0,0,0,0,0,0,0,0,0,0,0,0,0,0,0,0,0,0,0,0,0,0,0,0,0,0,0,0,0,0,0,0,0,0,0,0,0,0,0,0,0,0,0,0,0,0,0,0,0,0,0,0,0,0,0,0,0,0,0,0,0,0,0,0,0,0,0,0,0,0,0,0,0,0,0,0,0,0,0,0,25,27,0,0,0,0,0,0,0,0,0,0,0,0,0,0,0,0,0,0,0,
0,0,0,0,0,0,0,0,0,0,0,0,0,0,0,0,0,0,0,0,0,0,0,0,0,0,0,0,0,0,0,0,4,5,5,5,6,0,0,4,5,5,5,5,6,0,0,0,0,0,0,0,0,0,0,4,5,5,5,5,5,6,0,0,0,0,0,0,0,0,0,0,0,0,0,0,0,0,0,0,0,0,0,0,0,0,0,0,0,0,0,0,0,0,0,0,0,0,0,25,27,0,0,0,0,0,0,0,0,0,0,0,0,0,0,0,0,0,0,0,
0,0,0,0,0,0,0,0,0,0,0,0,0,0,0,0,0,0,0,0,0,0,0,0,0,0,0,0,0,0,0,0,0,0,0,0,0,0,0,0,0,0,0,0,0,0,0,0,0,0,0,0,0,0,0,0,0,0,0,0,0,0,0,0,0,0,0,0,0,0,0,0,0,0,0,0,0,0,0,0,0,0,0,0,0,0,0,0,0,0,0,0,0,0,0,0,0,0,0,25,27,0,0,0,0,0,0,0,0,0,0,0,0,0,0,0,0,0,0,0,
0,0,0,0,0,0,0,0,0,0,0,0,0,0,0,0,0,0,0,0,0,0,0,0,0,0,0,0,0,0,0,0,0,0,0,0,0,0,0,0,0,0,0,0,0,0,0,0,0,0,0,0,0,0,0,0,0,0,0,0,0,0,0,0,4,5,6,0,0,0,0,4,5,5,6,0,0,0,0,0,0,0,0,0,0,0,0,0,0,0,0,0,0,0,0,0,0,0,0,25,27,0,0,0,0,0,0,0,0,0,0,0,0,0,0,0,0,0,0,0,
0,0,0,0,0,0,0,0,0,0,0,0,0,0,0,0,0,0,0,0,0,0,0,0,0,0,0,0,4,6,0,0,0,0,0,0,0,0,0,0,0,0,0,0,0,0,0,4,5,5,5,5,5,6,0,0,0,0,0,0,0,0,0,0,0,0,0,0,0,0,0,0,0,0,0,0,0,0,0,0,0,0,0,0,0,0,0,0,0,0,0,0,0,0,0,0,0,0,0,25,27,0,0,0,0,0,0,0,0,0,0,0,0,0,0,0,0,0,0,0,
2,2,2,3,0,0,0,0,0,0,0,0,0,0,0,0,0,0,0,0,0,0,0,0,0,0,0,0,0,0,0,0,0,0,0,0,0,0,0,0,0,0,0,0,0,0,0,0,0,0,0,0,0,0,0,0,0,0,0,0,0,0,0,0,0,0,0,0,0,0,0,0,0,0,0,0,0,0,0,0,0,0,0,0,0,0,0,0,0,0,0,0,0,0,0,0,0,0,0,25,27,0,0,0,0,0,0,0,0,0,0,0,0,0,0,0,0,0,0,0,
9,9,9,9,2,3,0,0,0,0,0,0,0,0,0,0,0,0,0,0,0,0,0,0,0,0,0,0,0,0,0,0,0,0,0,0,0,0,0,0,0,0,0,0,0,0,0,0,0,0,0,0,0,0,0,0,0,0,0,0,0,0,0,0,7,0,0,0,4,6,0,0,0,0,0,0,0,0,0,0,0,0,0,0,0,0,0,0,0,0,0,0,0,0,0,0,0,0,0,25,27,0,0,0,0,0,0,0,0,0,0,0,0,0,0,0,0,0,0,0,
9,9,9,9,9,10,0,0,0,0,0,0,0,0,0,0,0,0,0,1,2,2,2,2,2,2,2,2,2,2,2,2,2,2,3,0,0,0,0,0,0,0,0,0,0,0,0,0,0,0,0,0,0,0,0,0,0,0,0,0,0,0,0,0,14,0,0,0,0,0,0,0,0,0,0,0,0,0,0,0,0,0,0,0,0,0,0,0,0,0,0,1,2,2,3,0,0,0,0,25,27,0,0,0,0,0,0,0,0,0,0,0,0,0,0,0,0,0,0,0,
9,9,9,9,9,10,0,0,0,0,0,0,0,0,0,0,0,50,0,8,9,9,9,9,9,9,9,9,9,9,9,9,9,9,10,0,0,0,0,0,0,0,0,0,0,0,0,0,0,0,0,0,0,0,0,0,0,0,0,0,0,0,0,0,14,0,0,0,0,0,0,0,0,0,0,0,0,0,0,0,0,0,0,0,0,0,0,0,0,0,0,8,9,9,10,0,0,0,0,25,27,0,0,0,0,0,0,0,0,0,0,0,0,0,0,0,0,0,0,0,
9,9,9,9,9,10,0,4,6,0,0,0,0,0,0,0,0,50,0,8,9,9,9,9,9,9,9,9,9,9,9,9,9,9,10,0,0,0,1,2,2,2,2,2,2,2,2,3,0,0,0,0,0,0,0,0,0,0,0,0,0,0,0,0,14,0,0,0,0,0,0,0,0,0,0,0,0,0,0,0,0,0,0,0,0,0,0,0,0,0,0,8,9,9,10,0,0,0,0,25,27,0,0,0,0,0,0,0,0,0,0,0,0,0,0,0,0,0,0,0,
9,9,9,9,9,10,0,0,0,0,0,0,0,0,50,0,0,50,51,8,9,9,9,9,9,9,9,9,9,9,9,9,9,9,10,0,0,0,8,9,9,9,9,9,9,9,9,10,0,0,0,0,0,0,0,0,0,0,0,0,0,0,0,0,14,0,0,0,0,0,0,0,0,0,0,0,0,0,0,0,0,0,0,0,0,0,0,0,0,1,2,9,9,9,10,0,0,0,0,32,34,0,0,0,0,0,0,0,0,13,0,0,0,0,0,0,0,0,0,0,
9,9,9,9,9,10,0,0,0,0,0,0,0,0,50,0,51,50,51,8,9,9,9,9,9,9,9,9,9,9,9,9,9,9,10,0,0,0,8,9,9,9,9,9,9,9,9,10,0,0,0,0,0,0,0,0,0,0,0,0,0,0,0,0,14,0,0,0,0,0,0,0,0,0,0,0,0,0,0,0,0,0,0,0,0,0,0,0,0,8,9,9,9,9,10,0,0,0,0,0,0,0,0,0,0,0,0,0,0,0,0,0,0,0,0,0,0,0,0,0,
9,9,9,9,9,10,0,0,0,0,0,0,0,0,50,51,51,50,51,8,9,9,9,9,9,9,9,9,9,9,9,9,9,9,10,0,0,0,8,9,9,9,9,9,9,9,9,10,0,0,0,1,2,2,2,2,2,2,2,2,2,2,2,3,14,0,0,0,0,0,0,0,0,0,0,0,0,0,0,0,0,0,0,0,0,0,0,0,0,8,9,9,9,9,10,0,0,0,0,0,0,0,0,0,0,0,0,0,0,0,0,0,0,0,0,0,0,0,0,0,
9,9,9,9,9,9,2,2,2,2,2,2,2,2,2,2,2,2,2,9,9,9,9,9,9,9,9,9,9,9,9,9,9,9,10,0,0,0,8,9,9,9,9,9,9,9,9,10,0,0,0,8,9,9,9,9,9,9,9,9,9,9,9,10,14,0,0,0,0,0,0,0,0,0,0,0,43,44,44,44,44,45,1,2,2,2,2,2,2,9,9,9,9,9,10,0,0,0,0,18,19,19,19,19,19,19,19,19,19,19,19,19,19,19,19,2,2,2,2,2,
9,9,9,9,9,9,9,9,9,9,9,9,9,9,9,9,9,9,9,9,9,9,9,9,9,9,9,9,9,9,9,9,9,9,10,0,0,0,8,9,9,9,9,9,9,9,9,10,0,0,0,8,9,9,9,9,9,9,9,9,9,9,9,10,14,0,0,0,0,0,0,0,0,0,0,0,29,0,29,0,29,0,8,9,9,9,9,9,9,9,9,9,9,9,10,0,0,0,0,25,26,26,26,26,26,26,26,26,26,26,26,26,26,26,26,9,9,9,9,9,
9,9,9,9,9,9,9,9,9,9,9,9,9,9,9,9,9,9,9,9,9,9,9,9,9,9,9,9,9,9,9,9,9,9,10,0,0,0,8,9,9,9,9,9,9,9,9,10,0,0,0,8,9,9,9,9,9,9,9,9,9,9,9,10,14,0,0,0,0,0,0,0,0,0,0,0,29,0,29,0,29,0,8,9,9,9,9,9,9,9,9,9,9,9,10,0,0,0,0,25,26,26,26,26,26,26,26,26,26,26,26,26,26,26,26,9,9,9,9,9
</data>
  </layer>
 </group>
 <objectgroup id="4" name="coins">
  <object id="1" type="coin" x="176" y="240" width="16" height="16">
   <properties>
    <property name="frame_index" type="int" value="61"/>
   </properties>
  </object>
  <object id="3" type="coin" x="256" y="224" width="16" height="16">
   <properties>
    <property name="frame_index" type="int" value="62"/>
   </properties>
  </object>
  <object id="4" type="coin" x="656" y="176" width="16" height="16">
   <properties>
    <property name="frame_index" type="int" value="54"/>
   </properties>
  </object>
  <object id="5" type="coin" x="736" y="176" width="16" height="16">
   <properties>
    <property name="frame_index" type="int" value="62"/>
   </properties>
  </object>
  <object id="6" type="coin" x="592" y="156.273" width="16" height="16">
   <properties>
    <property name="frame_index" type="int" value="55"/>
   </properties>
  </object>
  <object id="7" type="coin" x="880" y="232.5" width="16" height="16">
   <properties>
    <property name="frame_index" type="int" value="55"/>
   </properties>
  </object>
  <object id="8" type="coin" x="877.25" y="206.25" width="16" height="16">
   <properties>
    <property name="frame_index" type="int" value="61"/>
   </properties>
  </object>
  <object id="9" type="coin" x="870.25" y="145.75" width="16" height="16">
   <properties>
    <property name="frame_index" type="int" value="61"/>
   </properties>
  </object>
  <object id="10" type="coin" x="875" y="178.75" width="16" height="16">
   <properties>
    <property name="frame_index" type="int" value="62"/>
   </properties>
  </object>
  <object id="11" type="coin" x="866.75" y="114" width="16" height="16">
   <properties>
    <property name="frame_index" type="int" value="55"/>
   </properties>
  </object>
  <object id="12" type="coin" x="543.667" y="48.3333" width="16" height="16">
   <properties>
    <property name="frame_index" type="int" value="62"/>
   </properties>
  </object>
  <object id="13" type="coin" x="672" y="47.3333" width="16" height="16">
   <properties>
    <property name="frame_index" type="int" value="55"/>
   </properties>
  </object>
  <object id="14" type="coin" x="800.333" y="96" width="16" height="16">
   <properties>
    <property name="frame_index" type="int" value="61"/>
   </properties>
  </object>
  <object id="15" type="coin" x="896.333" y="48.3333" width="16" height="16">
   <properties>
    <property name="frame_index" type="int" value="62"/>
   </properties>
  </object>
  <object id="16" type="coin" x="943" y="48" width="16" height="16">
   <properties>
    <property name="frame_index" type="int" value="55"/>
   </properties>
  </object>
  <object id="17" type="coin" x="1095.67" y="137.667" width="16" height="16">
   <properties>
    <property name="frame_index" type="int" value="54"/>
   </properties>
  </object>
  <object id="18" type="coin" x="1095.33" y="95.6667" width="16" height="16">
   <properties>
    <property name="frame_index" type="int" value="62"/>
   </properties>
  </object>
  <object id="19" type="coin" x="1232.67" y="223.667" width="16" height="16">
   <properties>
    <property name="frame_index" type="int" value="61"/>
   </properties>
  </object>
  <object id="20" type="coin" x="1216.18" y="207.636" width="16" height="16">
   <properties>
    <property name="frame_index" type="int" value="62"/>
   </properties>
  </object>
  <object id="21" type="coin" x="1264.36" y="256" width="16" height="16">
   <properties>
    <property name="frame_index" type="int" value="54"/>
   </properties>
  </object>
  <object id="22" type="coin" x="1296.73" y="288.182" width="16" height="16">
   <properties>
    <property name="frame_index" type="int" value="61"/>
   </properties>
  </object>
  <object id="23" type="coin" x="1392" y="240" width="16" height="16">
   <properties>
    <property name="frame_index" type="int" value="62"/>
   </properties>
  </object>
  <object id="24" type="coin" x="1424.33" y="192.333" width="16" height="16">
   <properties>
    <property name="frame_index" type="int" value="55"/>
   </properties>
  </object>
  <object id="25" type="coin" x="1565.33" y="218.667" width="16" height="16">
   <properties>
    <property name="frame_index" type="int" value="61"/>
   </properties>
  </object>
  <object id="26" type="coin" x="1582.67" y="246" width="16" height="16">
   <properties>
    <property name="frame_index" type="int" value="62"/>
   </properties>
  </object>
  <object id="27" type="coin" x="1562.67" y="192.333" width="16" height="16">
   <properties>
    <property name="frame_index" type="int" value="55"/>
   </properties>
  </object>
  <object id="37" type="coin" x="992" y="224" width="16" height="16">
   <properties>
    <property name="frame_index" type="int" value="54"/>
   </properties>
  </object>
 </objectgroup>
 <objectgroup id="5" name="creatures">
  <object id="28" x="448.25" y="159.75" width="16" height="16">
   <properties>
    <property name="tile_index" type="int" value="48"/>
   </properties>
  </object>
  <object id="29" x="688.25" y="63.75" width="16" height="16">
   <properties>
    <property name="tile_index" type="int" value="48"/>
   </properties>
  </object>
  <object id="30" x="704" y="192" width="16" height="16">
   <properties>
    <property name="tile_index" type="int" value="52"/>
   </properties>
  </object>
  <object id="31" x="975.5" y="63.5" width="16" height="16">
   <properties>
    <property name="tile_index" type="int" value="48"/>
   </properties>
  </object>
  <object id="32" x="1487.5" y="160.5" width="16" height="16">
   <properties>
    <property name="tile_index" type="int" value="48"/>
   </properties>
  </object>
  <object id="33" x="1839.5" y="255.5" width="16" height="16">
   <properties>
    <property name="tile_index" type="int" value="48"/>
   </properties>
  </object>
  <object id="34" x="1775.5" y="255.5" width="16" height="16">
   <properties>
    <property name="tile_index" type="int" value="48"/>
   </properties>
  </object>
  <object id="35" x="1695.5" y="255.75" width="16" height="16">
   <properties>
    <property name="tile_index" type="int" value="52"/>
   </properties>
  </object>
 </objectgroup>
 <objectgroup id="9" name="keys"/>
 <objectgroup id="8" name="keyBlocks">
  <object id="36" name="keyBlockOff" x="1744" y="224" width="16" height="17">
   <properties>
    <property name="frame_index" type="int" value="34"/>
   </properties>
  </object>
 </objectgroup>
</map>
